!!!!SEGMENT: pl-wtm--1125-3623--001-002_rozycki-ludomir--deux-preludes-et-deux-nocturnes-op-3-prelude-ii.krn
!!!cenid: 19xx:134
!!!COM: Różycki, Ludomir
!!!COM-rismID: pe50045573
!!!CDT: 1883-1953
!!!CNT: Polish
!!!GTL: Deux Préludes et deux Nocturnes op. 3
!!!OTL: Prélude II.
!!!OMV: 002
!!!PDT: 1924
!!!AGN: Secular; Prelude
!!!YEC: Copyright 2022 Narodowy Instytut Fryderyka Chopina (https://polishscores.org)
!!!YEM: License CC-BY-4.0 (https://creativecommons.org/licenses/by/4.0)
!!!SMS-siglum: PL-Wtm
!!!SMS-shelfmark: 1125 3623
!!!SMS-variant:
!!!SMS-altvar:
!!!SMS-shelfwork: 001-002 G
!!!NIFC-rismSourceID: 1001192241
!!!NIFC-rismChildID: 1001192241
!!!NIFC-islandoraID: pl-wtm:72722
!!!URL-pdf-islandora: https://repozytorium.nifc.pl/islandora/object/pl-wtm%3A72722/datastream/PDF/view
!!!URL-scan: https://polish.musicsources.pl/pl/lokalizacje/galeria/druki-muzyczne/18456/3 @EN{Scan on Polish Music Sources Website} @PL{Skany w portalu Dziedzictwo Muzyki Polskiej w otwartym dostępie}
!!!IIIF:
!!!ONB-nifc:
!!!OMD: Con moto.
!!!AIN: 1 piano
!!!key: E
**kern	**fing	**kern	**fing	**dynam
*part1	*part1	*part1	*part1	*part1
*staff2	*staff2	*staff1	*staff1	*
*ICklav	*	*ICklav	*	*
*Ipiano	*	*Ipiano	*	*
*I"[PIANO.]	*	*I"[PIANO.]	*	*
*clefF4	*	*clefG2	*	*
*k[f#c#g#d#]	*	*k[f#c#g#d#]	*	*
*E:	*	*E:	*	*
*M6/8	*	*M6/8	*	*
=1	=1	=1	=1	=1
!LO:TX:b:i:t=con Ped.	!	!	!	!
(8A\L	5	(8ee\L	1	mf <
8e\	2	8bb#X\	2	.
8cc#\J	1	8ccc#\J	3	.
8F#\L	5	8ddd#\L	4	.
8e\	2	8fff#\	5	[
8a\J	1	[8eee\J	4	>
=2	=2	=2	=2	=2
4ee\)	2	4eee\]	.	]
8r	.	8ddd#\	3	>
4r	.	8ccc#\L	2	.
.	.	8aa\	1	.
8r	.	8ff#\J	4	]]
=3	=3	=3	=3	=3
8r	.	[4.ee\	3	.
*ped	*	*	*	*
(8GG#/L	5	.	.	.
8D#/J	3	.	.	.
8F#\L	2	4ee\]	.	.
8B#X\	1	.	.	.
*Xped	*	*	*	*
8f#\J)	3	8dd#\)	2	.
=4	=4	=4	=4	=4
*	*	*^	*	*
*ped	*	*	*	*	*
(8AA\L	.	(4ff#/	2.gn\	1 5-	f
8E\	.	.	.	.	.
8c#\J	.	8ee/	.	5	.
8A\L	.	8dd#/L	.	4	.
8e\J)	.	8cc#/	.	3	.
*Xped	*	*	*	*	*
8r	.	8a/J)	.	2	.
=5	=5	=5	=5	=5	=5
*^	*	*	*	*	*
*ped	*	*	*	*	*	*
(4F#/	4.DD#\	1	([4.g#X/	2.A\ 2.c#	5	.
8E/	.	1	.	.	.	.
8D#/L	4.r	2	4g#/]	.	.	.
8C#/	.	3	.	.	.	.
*Xped	*	*	*	*	*	*
8AA/J)	.	5	8f#/	.	.	.
!!LO:LB:g=original
=6	=6	=6	=6	=6	=6	=6
*ped	*	*	*	*	*	*
8r	2.GG#\	.	4.e/)	2.G#\ 2.cn	4	.
(8Gn/L	.	1	.	.	.	.
8F#/J	.	2	.	.	.	.
8Fn/L	.	.	(8d#/L	.	.	.
8E/	.	.	8e/	.	.	.
*Xped	*	*	*	*	*	*
8D#/J)	.	.	8f#/J	.	.	.
*v	*v	*	*	*	*	*
=7	=7	=7	=7	=7	=7
*ped	*	*	*	*	*
(4AAA/ 4AA	.	[4.g#:/	2.G#:\ 2.c#X:	.	>
8GGG#/ 8GG#	.	.	.	.	]
8AAA/L 8AA	.	4g#/]	.	.	<
*Xped	*	*	*	*	*
8BBB/ 8BB	.	.	.	.	.
8CC#/J) 8C#	.	8f#/)	.	.	[[
=8	=8	=8	=8	=8	=8
*	*	*	*	*	*^
*ped	*below	*	*	*	*	*
!	!	!	!	!	!LO:DY:b	!
8FFF#/L	5	2.E/ 2.A#X 2.e	2ryy	.	p <	mf
8BBB#X/	3	.	.	.	.	.
8CC#/J	2	.	.	.	.	.
*Xped	*	*	*	*	*	*
8FF#/L	1	.	.	.	.	.
8AAn/	3	.	4ryy	.	[ >	.
8GG#/J	4	.	.	.	]]	.
*	*	*	*	*	*v	*v
*	*	*v	*v	*	*
=9	=9	=9	=9	=9
*ped	*	*	*	*
(8FF#\L	5	8r	.	]
8E\	.	(8b#X\L	1	<
8c#\J	.	8cc#\J	2	.
8AA#X\L	.	8dd#\L	3	.
8E\	.	8ff#\	5	.
8c#\J	.	8ee\J	1	.
=10	=10	=10	=10	=10
8A#X\L	.	8eee\L	5	.
8e\	.	8ddd#\	4	.
8cc#\J)	.	8ccc#\J	3	.
4.r	.	8aa#X\L	2	.
.	.	8gg#\	1	.
*Xped	*	*	*	*
.	.	8ff#\J)	3	[[
!!LO:LB:g=original
=11	=11	=11	=11	=11
!LO:TX:a:i:t=m.g.	!	!	!	!
8r>	.	(>[>4.ee/	.	.
8dd#>\L	.	.	.	<
8ddn>\J	.	.	.	.
8cc#>\L	.	4ee/]	.	.
8ccn>\	.	.	.	.
8b>\J	.	8dd#/) 8ggn	.	[[
=12	=12	=12	=12	=12
2.f#>\ 2.a#X>	.	2.ee/ 2.gg#X 2.ccc#	.	.
=13	=13	=13	=13	=13
*	*	*^	*	*
*ped	*	*	*	*	*
!	!	!LO:TX:b:i:t=con passione	!	!	!
8BBB/ 8FF#	.	4.d#/ 4.an 4.cc#	4.ryy	.	f
8dn\L	.	.	.	.	.
8c#\J	.	.	.	.	.
8cn\L	.	(8f#/L	4.d#\	.	.
8B\	.	8g#/	.	.	.
*Xped	*	*	*	*	*
8A\J	.	8a/J	.	.	.
=14	=14	=14	=14	=14	=14
*^	*	*	*	*	*
4.B/	4.G#\	.	16%3b/L	4.e\	.	.
.	.	.	16%3ee/J	.	.	.
4.F##X\	4.ryy	.	16%3dd#/L	4.e\ 4.a#X	.	.
.	.	.	16%3cc#/J)	.	.	.
*v	*v	*	*	*	*	*
*	*	*v	*v	*	*
=15	=15	=15	=15	=15
*ped	*	*	*	*
!LO:N:n=2:acc=n#	!	!	!	!LO:HP:b=2
(8BB\L 8F#X	.	(4.an:\ 4.cc#: 4.ee: 4.aa:	.	ff <
8A\	.	.	.	.
8f#\J	.	.	.	[
!LO:TUP:a	!	!LO:TUP:a	!	!LO:HP:b=2
16%3e\L	.	16%3gg#\L	.	>
16%3d#\J	.	16%3ff#\J	.	]]
*Xped	*	*	*	*
=16	=16	=16	=16	=16
*ped	*	*	*	*
8c#\L) 8g#	.	8b\L) 8ff# 8bb	.	<
8B\	.	8ee\ 8eee	.	.
8G#\ 8B 8e	.	8gg#\ 8ggg#	.	.
8F#\J 8G# 8B 8e	.	8bb\J 8bbb	.	[[
*Xped	*	*	*	*
!!LO:LB:g=original
=17	=17	=17	=17	=17
*	*	*8va	*	*
*	*	*^	*	*
*ped	*	*	*	*	*
4AAA;/ 4EE 4AA	.	4cccn;\ 4eee 4aaa 4ccccn	4.ryy	.	ff
*Xped	*	*X8va	*	*	*
!	!	!LO:TX:a:i:t=un poco più lento	!	!	!
8r	.	8r	.	.	mf
(8c##X\L	.	(8f#/L	(4.d#\	.	>
!LO:N:acc=n#	!	!	!	!	!
8c#X\	.	8g#/	.	.	.
8B\J	.	8a/J	.	.	]
=18	=18	=18	=18	=18	=18
16%3A\L	.	4.b/)	4.e\)	.	<
16%3G#\J)	.	.	.	.	[
!	!	!LO:TX:b:i:t=doloroso	!	!	!LO:HP:b=2
(16%3dn\L	.	4.ee/	4.e\ 4.gn	.	>
16%3cn\J	.	.	.	.	]
*	*	*v	*v	*	*
=19	=19	=19	=19	=19
4.G#\)	.	4.e/ 4.b	.	]
*	*	*clefF4	*	*
!LO:TUP:b	!	!	!	!
16%3DDn/L 16%3Dn	.	4.E\ 4.Gn 4.A#X 4.e	.	>]
[16%3CCn/J [16%3Cn	.	.	.	.
=20	=20	=20	=20	=20
4.CC/] 4.C]	.	2.BB\ 2.E 2.B	.	.
4.GGG#/ 4.GG#	.	.	.	.
=21||	=21||	=21||	=21||	=21||
*M9/8	*	*M9/8	*	*
*ped	*	*	*	*
4.FFF#/ 4.FF#	.	4.C#,\ 4.E 4.A	.	.
*	*	*clefG2	*	*
4.r	.	(8ee\L	.	p
.	.	8bb#X\	.	.
.	.	8ccc#\J	.	.
4.r	.	8ddd#\L	.	.
.	.	8fff#\	.	.
*Xped	*	*	*	*
.	.	[8eee;\J)	.	.
=22||	=22||	=22||	=22||	=22||
*M6/8	*	*M6/8	*	*
2.r	.	4eee\]	.	.
.	.	(8ddd#\	.	.
.	.	8ccc#\L	.	.
.	.	8aa\	.	.
.	.	8ff#\J	.	.
!!LO:LB:g=original
=23	=23	=23	=23	=23
8r	.	[4.ee\	.	.
*ped	*	*	*	*
(8GG#/L	.	.	.	.
8D#/J	.	.	.	.
8F#\L	.	4ee\])	.	.
8B#X\	.	.	.	.
*Xped	*	*	*	*
8f#\J)	.	8dd#\	.	.
=24	=24	=24	=24	=24
*	*	*^	*	*
*ped	*	*	*	*	*
(8AA\L	.	(4ff#/	2.gn\	.	.
8E\	.	.	.	.	.
8c#\J	.	8ee/	.	.	.
8A\L	.	8dd#/L	.	.	.
8e\J)	.	8cc#/	.	.	.
*Xped	*	*	*	*	*
8r	.	8a/J)	.	.	.
=25	=25	=25	=25	=25	=25
*^	*	*	*	*	*
(4F#/	4.DD#\	.	([4.g#X/	[2.A\ [2.c#	.	.
8E/	.	.	.	.	.	.
8D#/L	4.r	.	4g#/]	.	.	.
8C#/	.	.	.	.	.	.
8AA/J)	.	.	[8f#/)	.	.	.
*v	*v	*	*	*	*	*
=26	=26	=26	=26	=26	=26
*ped	*above	*	*	*	*
!	!	!	!	!	!LO:HP:b=2
(8BBB/L	5	4f#/]	4A\] 4c#]	.	<
8BB/	1	.	.	.	.
8F#/J	4	8r	2ryy	.	.
8A\L	3	4.r	.	.	.
8e\	1	.	.	.	.
8d#\J	3	.	.	.	[[
*	*	*v	*v	*	*
=27	=27	=27	=27	=27
2.cc#\)	1	2.r	.	.
*Xped	*	*	*	*
=28	=28	=28	=28	=28
*ped	*	*	*	*
4G#\ 4B 4e	.	4g#\ 4ee 4bb	.	.
8r	.	8r	.	.
*8ba	*	*	*	*
[4.EEE/	.	4.r	.	.
=29	=29	=29	=29	=29
*^	*	*	*	*
!	!	!	!LO:TX:b:i:t=loco	!	!
2.GG#/ 2.BB 2.E	2.EEE/]	.	2.g#\ 2.ee 2.bb	.	.
*v	*v	*	*	*	*
*X8ba	*	*	*	*
*Xped	*	*	*	*
==	==	==	==	==
*-	*-	*-	*-	*-
!!!system-decoration: {(s1,s2)}
!!!RDF**kern: < = below
!!!RDF**kern: > = above
!!!ENC: Filip Voros
!!!END: 2023-10-12
!!!EED: Marta Chmielewska
!!!EEV: 2023-10-23
